src/social-linkedin.svg

<?xml version="1.0" encoding="utf-8"?>
<!-- Generated by IcoMoon.io -->
<!DOCTYPE svg PUBLIC "-//W3C//DTD SVG 1.1//EN" "http://www.w3.org/Graphics/SVG/1.1/DTD/svg11.dtd">
<svg version="1.1" xmlns="http://www.w3.org/2000/svg" xmlns:xlink="http://www.w3.org/1999/xlink" width="512" height="512" viewBox="0 0 512 512">
<path fill="#000000" d="M417.2 64h-320.4c-17.5 0-32.8 12.6-32.8 29.9v321.1c0 17.4 15.3 32.9 32.8 32.9h320.3c17.6 0 30.8-15.6 30.8-32.9v-321.1c0.1-17.3-13.2-29.9-30.7-29.9zM183 384h-55v-171h55v171zM157.4 187h-0.4c-17.6 0-29-13.1-29-29.5 0-16.7 11.7-29.5 29.7-29.5s29 12.7 29.4 29.5c0 16.4-11.4 29.5-29.7 29.5zM384 384h-55v-93.5c0-22.4-8-37.7-27.9-37.7-15.2 0-24.2 10.3-28.2 20.3-1.5 3.6-1.9 8.5-1.9 13.5v97.4h-55v-171h55v23.8c8-11.4 20.5-27.8 49.6-27.8 36.1 0 63.4 23.8 63.4 75.1v99.9z"></path>
</svg>

<?xml version="1.0" encoding="utf-8"?>
<!-- Generator: Adobe Illustrator 16.2.1, SVG Export Plug-In . SVG Version: 6.00 Build 0)  -->
<!DOCTYPE svg PUBLIC "-//W3C//DTD SVG 1.1//EN" "http://www.w3.org/Graphics/SVG/1.1/DTD/svg11.dtd">
<svg version="1.1" id="Layer_1" xmlns="http://www.w3.org/2000/svg" xmlns:xlink="http://www.w3.org/1999/xlink" x="0px" y="0px"
	 width="512px" height="512px" viewBox="0 0 512 512" style="enable-background:new 0 0 512 512;" xml:space="preserve">
<g>
	<path d="M417.2,64H96.8C79.3,64,64,76.6,64,93.9v321.1c0,17.4,15.3,32.9,32.8,32.9h320.3c17.6,0,30.8-15.6,30.8-32.9V93.9
		C448,76.6,434.7,64,417.2,64z M183,384h-55V213h55V384z M157.4,187H157c-17.6,0-29-13.1-29-29.5c0-16.7,11.7-29.5,29.7-29.5
		c18,0,29,12.7,29.4,29.5C187.1,173.9,175.7,187,157.4,187z M384,384h-55v-93.5c0-22.4-8-37.7-27.9-37.7
		c-15.2,0-24.2,10.3-28.2,20.3c-1.5,3.6-1.9,8.5-1.9,13.5V384h-55V213h55v23.8c8-11.4,20.5-27.8,49.6-27.8
		c36.1,0,63.4,23.8,63.4,75.1V384z"/>
</g>
</svg>
